X:943
T:Jackson's Rolling Jig.
B:O'Neill's 943
Z:Transcribed by Tom Keays (htkeays@mailbox.syr.edu)
Z:abc 1.6
M:6/8
R:Jig
L:1/8
K:G
~G3 BGB|AFA c2 dcA|~G3 BGB|dcA ecA|
~G3 BGB|AFA c2 dcA|GBd d2 f|agdB dcAF :|
||gdc BGB|AFA c2 dcA|gdc BGB|dcA ecA|
gdc BGB|AFA c2 dcA|GBd d2 f|agdB dcAF :|
